assets/img/footer/tg.svg

<svg width="25" height="25" viewBox="0 0 25 25" fill="none" xmlns="http://www.w3.org/2000/svg">
<g clip-path="url(#clip0_13_280)">
<path d="M12.5 25C19.4036 25 25 19.4036 25 12.5C25 5.59644 19.4036 0 12.5 0C5.59644 0 0 5.59644 0 12.5C0 19.4036 5.59644 25 12.5 25ZM10.4211 15.0424L16.2171 9.81198C16.4715 9.58621 16.1616 9.47611 15.8239 9.6809L8.67046 14.1939L5.58056 13.2295C4.91328 13.0252 4.90849 12.5667 5.73037 12.237L17.771 7.5942C18.3209 7.34453 18.8517 7.72628 18.6418 8.56797L16.5912 18.2308C16.4481 18.9174 16.0332 19.0817 15.4583 18.7645L12.3347 16.4567L10.8333 17.9167C10.6589 18.0863 10.5208 18.2292 10.2083 18.2292L10.4211 15.0424Z" fill="white"/>
</g>
<defs>
<clipPath id="clip0_13_280">
<rect width="25" height="25" fill="white"/>
</clipPath>
</defs>
</svg>

<svg width="25" height="25" fill="none" xmlns="http://www.w3.org/2000/svg"><g clip-path="url(#a)"><path d="M12.5 25C19.404 25 25 19.404 25 12.5S19.404 0 12.5 0 0 5.596 0 12.5 5.596 25 12.5 25Zm-2.079-9.958 5.796-5.23c.255-.226-.055-.336-.393-.131L8.67 14.194l-3.09-.965c-.667-.204-.672-.662.15-.992l12.041-4.643c.55-.25 1.08.132.87.974l-2.05 9.663c-.143.686-.558.85-1.133.534l-3.123-2.308-1.502 1.46c-.174.17-.312.312-.625.312l.213-3.187Z" fill="#fff"/></g><defs><clipPath id="a"><path fill="#fff" d="M0 0h25v25H0z"/></clipPath></defs></svg>
